X:1
T:Salvation (Hays)
T:William Shakespeare Hays, 1881
T:Salvation (Hays)
T:Public Domain
C:William Shakespeare Hays, 1881
Z:Public Domain
%%score ( 1 2 ) ( 3 4 )
L:1/8
M:4/4
K:F
V:1 treble 
V:2 treble 
V:3 bass 
V:4 bass 
V:1
 [FA][FB] | [Fc][Fc][Fd][Fc] [Fc] [FA]2 [CF] | [DG][DF][DF][B,D] C2 [CF][CG] | %3
 [FA][FA][FA][FA] [Fd][Fc][Ac][FA] | [EG]6 [FA][FB] | [Fc][Fc][Fd][Fc] [Fc] [FA]2 [CF] | %6
 [DG][DF][DF][B,D] C2 [CF][CG] | [FA][Ac][FA][CF] [EG][GB][FA][EG] | [CF]6 [_EF]2 | %9
 [DB][DB][DB][DB] [DB] [Fd]2 [Fd] | [Fd][Fc][Ac][FA] [Ac]2 AG | [CF][CF]FF [Fd][Fc][Ac][FA] | %12
 [EG]6 [FA][EB][Fc][Fc][Fd][Fc][Fc] [FA]2 [CF] | [DG][DF][DF][B,D] C2 [CF][CG] | %14
 [FA][Ac][FA][CF] [EG][GB][FA][EG] | [CF]6 |] %16
V:2
 x2 | x8 | x8 | x8 | x8 | x8 | x8 | x8 | x8 | x8 | x6 C2 | x8 | x16 | x8 | x8 | x6 |] %16
V:3
 F,[F,G,] | [F,A,][F,A,][F,B,][F,A,] [F,A,] [F,C]2 [F,A,] | %2
 [B,,B,][B,,B,][B,,B,][D,B,] [F,A,]2 [F,A,][F,B,] | [F,C][F,C][F,C][F,C] [F,B,][F,A,][F,C][F,C] | %4
 [C,C]6 F,[F,G,] | [F,A,][F,A,][F,B,][F,A,] [F,A,] [F,C]2 [F,A,] | %6
 [B,,B,][B,,B,][B,,B,][D,B,] [F,A,]2 [F,A,][F,B,] | [F,C][F,C][F,C][F,A,] [C,C][C,D][C,C][C,B,] | %8
 [F,,F,A,]6 [F,A,]2 | [B,,B,][B,,F,][B,,F,][B,,F,] [B,,F,] [B,,B,]2 [D,B,] | %10
 [F,B,][F,A,][F,C][F,C] [F,C]2 CB, | [F,A,][F,A,][F,A,][F,A,] [F,B,][F,A,][F,C][F,C] | %12
 [C,C]6 [A,C][G,B,][F,A,][F,A,][F,B,][F,A,][F,A,] [F,C]2 [F,A,] | %13
 [B,,B,][B,,B,][B,,B,][D,B,] [F,A,]2 [F,A,][F,B,] | [F,C][F,C][F,C][F,A,] [C,C][C,D][C,C][C,B,] | %15
 [F,,F,A,]6 |] %16
V:4
 x2 | x8 | x8 | x8 | x6 F, x | x8 | x8 | x8 | x8 | x8 | x6 F,2 | x8 | x16 | x8 | x8 | x6 |] %16

